X: 1
T: The Walls Of Liscarrol
R: jig
M: 6/8
L: 1/8
K: Dmix
dcA AGE | GED D2E | GEE cEE | GAB cde|
dcA AGE | GED D2E | GEE cEE | GED D3:|
dcA ecA | dcA ecA | GEE cBc | GAB cde |
dcA ecA | dcA ecA | GEE cEE |GED D3 |
dcA ecA | dcA ecA | GEE cBc | GAB cde|
dcA AGE | GED D2E | GEE cEE |GED D3 |
